assets/Woman shrugging/Medium/Flat/woman_shrugging_flat_medium.svg

<svg width="32" height="32" viewBox="0 0 32 32" fill="none" xmlns="http://www.w3.org/2000/svg">
<path d="M22.9695 10.3818C22.9095 9.75182 22.6695 9.18182 22.3095 8.72182C21.9395 8.26182 21.7195 7.69182 21.6695 7.10182V7.09182C21.5195 5.38182 20.0095 4.12182 18.2995 4.27182C18.1295 4.28182 17.9595 4.22182 17.8495 4.09182C17.2195 3.35182 16.2595 2.92182 15.2195 3.01182C14.1795 3.10182 13.3095 3.69182 12.8195 4.53182C12.7295 4.68182 12.5795 4.77182 12.4095 4.78182C10.6995 4.93182 9.42954 6.44182 9.57954 8.15182V8.16182C9.62954 8.75182 9.50954 9.34182 9.22954 9.87182C8.94954 10.3818 8.80954 10.9918 8.86954 11.6218C8.90954 12.1018 9.05954 12.5418 9.28954 12.9318C9.36954 13.0618 9.37954 13.2218 9.32954 13.3618C9.16954 13.7818 9.09954 14.2318 9.13954 14.7118C9.28954 16.3818 10.7595 17.6118 12.4295 17.4718L20.4895 16.7618C22.1595 16.6118 23.3895 15.1418 23.2495 13.4718C23.2095 13.0018 23.0595 12.5618 22.8295 12.1718C22.7495 12.0418 22.7395 11.8818 22.7895 11.7418C22.9395 11.3318 23.0095 10.8618 22.9695 10.3818Z" fill="#593B39"/>
<path d="M8.31951 14.6019L6.71834 13.7212L4.99951 14.6019V16.2419H8.31951V14.6019Z" fill="#774AA6"/>
<path d="M23.6796 14.6019L25.3345 13.7213L27.0096 14.6019V16.2419H23.6796V14.6019Z" fill="#774AA6"/>
<path d="M2.13953 12.1218L2.39318 12.4165C2.17762 12.6298 2.15751 12.9814 2.35955 13.2219C2.35955 13.2219 2.54955 13.4419 2.89955 13.8519C3.30955 14.3319 3.90955 14.6019 4.53955 14.6019H8.31955V12.7919C8.31955 11.9419 8.00955 11.1119 7.44955 10.4619L6.95955 9.90191C6.68955 9.59191 6.21955 9.55191 5.89955 9.82191C5.58955 10.0919 5.55955 10.5619 5.81955 10.8719L6.14955 11.2519C6.21955 11.3219 6.15955 11.4419 6.05955 11.4419L5.21065 11.432L4.28953 10.362C4.07953 10.112 3.69953 10.092 3.45953 10.302C3.39469 10.3565 3.34465 10.4217 3.30975 10.4928C3.09452 10.3086 2.76725 10.3007 2.53955 10.492C2.34063 10.6661 2.28597 10.95 2.39265 11.1845C2.32707 11.2077 2.26485 11.2434 2.20953 11.2918C1.95953 11.5018 1.92953 11.8718 2.13953 12.1218Z" fill="#C68D7B"/>
<path d="M29.8596 12.132L29.61 12.4205C29.8218 12.6342 29.8408 12.9833 29.6496 13.2319C29.6496 13.2319 29.4596 13.4519 29.1096 13.8619C28.6996 14.3419 28.0996 14.6119 27.4696 14.6119H23.6896V12.8019C23.6896 11.9519 23.9996 11.1219 24.5596 10.4719L25.0496 9.91192C25.3196 9.60192 25.7896 9.56192 26.0996 9.83192C26.4096 10.1019 26.4496 10.5719 26.1796 10.8819L25.8496 11.2519C25.7796 11.3219 25.8396 11.4419 25.9396 11.4419L26.7884 11.4321L27.7095 10.362C27.9195 10.112 28.2896 10.092 28.5396 10.302C28.6064 10.3581 28.6568 10.4257 28.6907 10.4994C28.906 10.3102 29.2324 10.3111 29.4596 10.502C29.6662 10.6755 29.7157 10.9584 29.6081 11.1924C29.6761 11.2164 29.7411 11.2529 29.7996 11.302C30.0496 11.512 30.0696 11.882 29.8596 12.132Z" fill="#C68D7B"/>
<path d="M26.7595 15.6018H23.8795C23.4695 15.6018 23.1395 15.9318 23.1395 16.3418V18.7818C23.1395 18.9118 22.9995 18.9918 22.8795 18.9318L20.2995 17.5418C20.2595 17.5218 20.2195 17.4918 20.1795 17.4718L20.1295 17.4418C19.5095 17.1318 18.8095 16.9518 18.0595 16.9518H13.9695C13.2095 16.9518 12.4995 17.1318 11.8695 17.4618L9.09951 18.9218C8.99951 18.9918 8.84951 18.9118 8.84951 18.7818V16.3418C8.84951 15.9318 8.51951 15.6018 8.10951 15.6018H5.23951C4.82951 15.6018 4.49951 15.9318 4.49951 16.3418V21.4118C4.49951 22.4618 5.05951 23.4418 5.95951 23.9718C6.41951 24.2418 6.94951 24.3818 7.46951 24.3818C7.96951 24.3818 8.45951 24.2618 8.90951 24.0118L9.99951 23.3718V28.1918H21.9995V23.2018L23.0795 24.0118C23.5295 24.2618 24.0195 24.3818 24.5195 24.3818C25.0395 24.3818 25.5695 24.2418 26.0295 23.9718C26.9295 23.4418 27.4895 22.4618 27.4895 21.4118V16.3418C27.4995 15.9318 27.1695 15.6018 26.7595 15.6018Z" fill="#8B62BF"/>
<path d="M15.9995 19.4919C14.9095 19.4919 14.0295 18.6119 14.0295 17.5219V15.2019C14.0295 14.1119 14.9095 13.2319 15.9995 13.2319C17.0895 13.2319 17.9695 14.1119 17.9695 15.2019V17.5319C17.9695 18.6119 17.0895 19.4919 15.9995 19.4919Z" fill="#B87A66"/>
<path d="M11.136 9.91197C10.4835 10.0746 10 10.6646 10 11.3675C10 12.1959 10.6716 12.8675 11.5 12.8675C11.5302 12.8675 11.5601 12.8666 11.5898 12.8648L11.136 9.91197Z" fill="#BB806E"/>
<path d="M20.477 12.0889C21.1928 11.9752 21.74 11.3552 21.74 10.6075C21.74 9.83405 21.1546 9.19733 20.4027 9.11621L20.477 12.0889Z" fill="#BB806E"/>
<path d="M11.634 8.27091C11.4131 8.41436 10.9823 8.80262 11.031 9.62985L11.4196 12.6218C11.7596 15.2418 13.9396 16.8318 16.4096 16.6218C18.8796 16.4018 20.7496 14.4618 20.6296 11.8218L20.4896 8.72183C20.4723 8.34357 20.3938 7.983 20.2641 7.64856L16.3395 7.99184C15.1595 8.09184 13.9995 7.61184 13.2495 6.69184C13.1195 6.54184 12.8795 6.59184 12.8195 6.78184L12.7595 6.96184C12.5841 7.5512 12.1675 8.01749 11.634 8.27091Z" fill="#C68D7B"/>
<path d="M18.2795 9.57181C17.7495 9.61181 17.3495 10.0218 17.1195 10.4518C17.3448 10.4996 17.5643 10.5427 17.7824 10.5856C18.203 10.6682 18.6182 10.7498 19.0595 10.8618L19.4695 10.4218C19.6395 10.2318 19.5995 9.94181 19.3795 9.81181C19.0595 9.62181 18.6495 9.54181 18.2795 9.57181Z" fill="black"/>
<path d="M13.3696 9.99191C13.8996 9.95191 14.3696 10.2719 14.6696 10.6619C14.4168 10.7662 14.172 10.8609 13.9288 10.955C13.566 11.0953 13.2068 11.2343 12.8296 11.4019L12.3496 11.0319C12.1496 10.8819 12.1396 10.5819 12.3296 10.4219C12.6096 10.1819 12.9996 10.0319 13.3696 9.99191Z" fill="black"/>
<path d="M19.4795 10.5518C19.2895 9.99175 18.7295 9.62175 18.1195 9.67175C17.4895 9.73175 16.9995 10.2318 16.9295 10.8418C16.9195 10.9718 17.0395 11.0817 17.1695 11.0717L19.2595 10.8918C19.4195 10.8818 19.5295 10.7118 19.4795 10.5518Z" fill="white"/>
<path d="M12.3696 11.1718C12.4596 10.5918 12.9396 10.1218 13.5496 10.0718C14.1796 10.0218 14.7496 10.4218 14.9296 11.0218C14.9696 11.1518 14.8696 11.2818 14.7396 11.2918L12.6496 11.4718C12.4796 11.4818 12.3396 11.3418 12.3696 11.1718Z" fill="white"/>
<path d="M18.8595 10.7019C18.8195 10.2419 18.4095 9.90192 17.9495 9.94192C17.4895 9.98192 17.1495 10.3919 17.1895 10.8519C17.1895 10.9319 17.2095 11.0019 17.2395 11.0619L18.8495 10.9219C18.8595 10.8519 18.8695 10.7819 18.8595 10.7019Z" fill="#7D4533"/>
<path d="M12.9995 11.2219C12.9595 10.7519 13.2995 10.3419 13.7595 10.3019C14.2195 10.2619 14.6295 10.6119 14.6695 11.0819C14.6795 11.1519 14.6695 11.2319 14.6595 11.3019L13.0495 11.4419C13.0195 11.3719 13.0095 11.3019 12.9995 11.2219Z" fill="#7D4533"/>
<path d="M17.9844 10.2912C17.7144 10.3112 17.5244 10.5512 17.5444 10.8112C17.5444 10.8912 17.5744 10.9612 17.6144 11.0312L18.4644 10.9612C18.4944 10.8912 18.5144 10.8112 18.5044 10.7312C18.4844 10.4612 18.2444 10.2712 17.9844 10.2912Z" fill="black"/>
<path d="M13.7895 10.662C14.0495 10.642 14.2895 10.842 14.3095 11.102C14.3195 11.182 14.3095 11.262 14.2695 11.332L13.4195 11.402C13.3795 11.332 13.3595 11.262 13.3495 11.182C13.3295 10.922 13.5295 10.682 13.7895 10.662Z" fill="black"/>
<path d="M17.8596 10.4718C17.8596 10.5546 17.7924 10.6218 17.7096 10.6218C17.6267 10.6218 17.5596 10.5546 17.5596 10.4718C17.5596 10.3889 17.6267 10.3218 17.7096 10.3218C17.7924 10.3218 17.8596 10.3889 17.8596 10.4718Z" fill="white"/>
<path d="M13.6696 10.8419C13.6696 10.9247 13.6025 10.9919 13.5196 10.9919C13.4368 10.9919 13.3696 10.9247 13.3696 10.8419C13.3696 10.7591 13.4368 10.6919 13.5196 10.6919C13.6025 10.6919 13.6696 10.7591 13.6696 10.8419Z" fill="white"/>
<path d="M15.5496 10.7818L15.2096 12.3618C15.1396 12.6818 15.3996 12.9818 15.7296 12.9518L16.4296 12.8918C16.7596 12.8618 16.9696 12.5218 16.8396 12.2118L16.2296 10.7118C16.1096 10.3918 15.6296 10.4318 15.5496 10.7818Z" fill="#AB6A55"/>
<path d="M18.9793 8.99683C19.0101 9.00487 19.0364 9.01174 19.0695 9.01174C19.1595 9.01174 19.2595 8.96174 19.2995 8.86174C19.3595 8.74174 19.3095 8.59174 19.1795 8.53174C19.1495 8.51174 18.2895 8.13174 17.3695 8.38174C17.2295 8.42174 17.1495 8.56174 17.1895 8.69174C17.2295 8.83174 17.3595 8.91174 17.4995 8.87174C18.1696 8.68816 18.8312 8.9427 18.9431 8.98573C18.9531 8.98958 18.9595 8.99174 18.9595 8.99174C18.9664 8.99345 18.9729 8.99517 18.9793 8.99683Z" fill="#593B39"/>
<path d="M12.2195 9.48166C12.2695 9.55166 12.3495 9.59166 12.4295 9.59166C12.4795 9.59166 12.5295 9.58166 12.5695 9.55166C12.5695 9.55166 12.5774 9.54757 12.5898 9.54024C12.7059 9.47155 13.3028 9.11841 13.9895 9.18166C14.1395 9.19166 14.2595 9.09166 14.2695 8.95166C14.2795 8.81166 14.1795 8.68166 14.0395 8.67166C13.0947 8.58308 12.3339 9.09507 12.2815 9.13033L12.2795 9.13166C12.1695 9.21166 12.1395 9.37166 12.2195 9.48166Z" fill="#593B39"/>
<path d="M16.2595 14.7818C16.5909 14.7818 16.8595 14.5132 16.8595 14.1818C16.8595 13.8504 16.5909 13.5818 16.2595 13.5818C15.9282 13.5818 15.6595 13.8504 15.6595 14.1818C15.6595 14.5132 15.9282 14.7818 16.2595 14.7818Z" fill="#990838"/>
</svg>

<svg xmlns="http://www.w3.org/2000/svg" width="32" height="32" fill="none"><path fill="#593B39" d="M22.97 10.382c-.06-.63-.3-1.2-.66-1.66-.37-.46-.59-1.03-.64-1.62v-.01a3.107 3.107 0 0 0-3.37-2.82.543.543 0 0 1-.45-.18 3.09 3.09 0 0 0-2.63-1.08c-1.04.09-1.91.68-2.4 1.52-.09.15-.24.24-.41.25a3.114 3.114 0 0 0-2.83 3.37v.01c.05.59-.07 1.18-.35 1.71-.28.51-.42 1.12-.36 1.75.04.48.19.92.42 1.31.08.13.09.29.04.43-.16.42-.23.87-.19 1.35.15 1.67 1.62 2.9 3.29 2.76l8.06-.71a3.044 3.044 0 0 0 2.34-4.59.501.501 0 0 1-.04-.43c.15-.41.22-.88.18-1.36Z"/><path fill="#774AA6" d="m8.32 14.602-1.602-.88-1.718.88v1.64h3.32v-1.64ZM23.68 14.602l1.654-.88 1.676.88v1.64h-3.33v-1.64Z"/><path fill="#C68D7B" d="m2.14 12.122.253.294a.596.596 0 0 0-.033.806s.19.22.54.63c.41.48 1.01.75 1.64.75h3.78v-1.81c0-.85-.31-1.68-.87-2.33l-.49-.56a.756.756 0 0 0-1.06-.08c-.31.27-.34.74-.08 1.05l.33.38c.07.07.01.19-.09.19l-.85-.01-.92-1.07a.587.587 0 0 0-.83-.06.586.586 0 0 0-.15.19.597.597 0 0 0-.77 0 .595.595 0 0 0-.147.692.563.563 0 0 0-.183.108c-.25.21-.28.58-.07.83ZM29.86 12.132l-.25.289a.62.62 0 0 1 .04.81s-.19.22-.54.63c-.41.48-1.01.75-1.64.75h-3.78v-1.81c0-.85.31-1.68.87-2.33l.49-.56a.745.745 0 0 1 1.13.97l-.33.37c-.07.07-.01.19.09.19l.848-.009.921-1.07c.21-.25.58-.27.83-.06a.566.566 0 0 1 .152.197.59.59 0 0 1 .917.693.587.587 0 0 1 .252.94Z"/><path fill="#8B62BF" d="M26.76 15.602h-2.88c-.41 0-.74.33-.74.74v2.44c0 .13-.14.21-.26.15l-2.58-1.39c-.04-.02-.08-.05-.12-.07l-.05-.03c-.62-.31-1.32-.49-2.07-.49h-4.09c-.76 0-1.47.18-2.1.51l-2.77 1.46c-.1.07-.25-.01-.25-.14v-2.44c0-.41-.33-.74-.74-.74H5.24c-.41 0-.74.33-.74.74v5.07c0 1.05.56 2.03 1.46 2.56.46.27.99.41 1.51.41.5 0 .99-.12 1.44-.37l1.09-.64v4.82h12v-4.99l1.08.81c.45.25.94.37 1.44.37.52 0 1.05-.14 1.51-.41a2.98 2.98 0 0 0 1.46-2.56v-5.07a.724.724 0 0 0-.73-.74Z"/><path fill="#B87A66" d="M16 19.492c-1.09 0-1.97-.88-1.97-1.97v-2.32c0-1.09.88-1.97 1.97-1.97 1.09 0 1.97.88 1.97 1.97v2.33c0 1.08-.88 1.96-1.97 1.96Z"/><path fill="#BB806E" d="M11.136 9.912a1.5 1.5 0 0 0 .454 2.953l-.454-2.953ZM20.477 12.089a1.5 1.5 0 0 0-.074-2.973l.074 2.973Z"/><path fill="#C68D7B" d="M11.634 8.27c-.22.144-.652.533-.603 1.36l.389 2.992c.34 2.62 2.52 4.21 4.99 4 2.47-.22 4.34-2.16 4.22-4.8l-.14-3.1a3.39 3.39 0 0 0-.226-1.073l-3.924.343c-1.18.1-2.34-.38-3.09-1.3a.25.25 0 0 0-.43.09l-.06.18a2.117 2.117 0 0 1-1.126 1.309Z"/><path fill="#000" d="M18.28 9.572c-.53.04-.93.45-1.16.88.225.048.444.09.662.134.421.082.836.164 1.277.276l.41-.44c.17-.19.13-.48-.09-.61-.32-.19-.73-.27-1.1-.24ZM13.37 9.992c.53-.04 1 .28 1.3.67-.253.104-.498.199-.741.293-.363.14-.722.28-1.1.447l-.48-.37a.391.391 0 0 1-.02-.61c.28-.24.67-.39 1.04-.43Z"/><path fill="#fff" d="M19.48 10.552a1.32 1.32 0 0 0-1.36-.88c-.63.06-1.12.56-1.19 1.17-.01.13.11.24.24.23l2.09-.18c.16-.01.27-.18.22-.34ZM12.37 11.172c.09-.58.57-1.05 1.18-1.1.63-.05 1.2.35 1.38.95.04.13-.06.26-.19.27l-2.09.18c-.17.01-.31-.13-.28-.3Z"/><path fill="#7D4533" d="M18.86 10.702a.84.84 0 0 0-.91-.76.84.84 0 0 0-.76.91c0 .08.02.15.05.21l1.61-.14c.01-.07.02-.14.01-.22ZM13 11.222c-.04-.47.3-.88.76-.92a.849.849 0 0 1 .9 1l-1.61.14a.785.785 0 0 1-.05-.22Z"/><path fill="#000" d="M17.984 10.291c-.27.02-.46.26-.44.52 0 .08.03.15.07.22l.85-.07a.481.481 0 0 0-.48-.67ZM13.79 10.662c.26-.02.5.18.52.44.01.08 0 .16-.04.23l-.85.07a.489.489 0 0 1 .37-.74Z"/><path fill="#fff" d="M17.86 10.472a.15.15 0 1 1-.3 0 .15.15 0 0 1 .3 0ZM13.67 10.842a.15.15 0 1 1-.3 0 .15.15 0 0 1 .3 0Z"/><path fill="#AB6A55" d="m15.55 10.782-.34 1.58c-.07.32.19.62.52.59l.7-.06c.33-.03.54-.37.41-.68l-.61-1.5c-.12-.32-.6-.28-.68.07Z"/><path fill="#593B39" d="M18.98 8.997c.03.008.056.015.09.015.09 0 .19-.05.23-.15.06-.12.01-.27-.12-.33-.03-.02-.89-.4-1.81-.15a.25.25 0 0 0-.18.31c.04.14.17.22.31.18.67-.184 1.331.07 1.443.114a.46.46 0 0 0 .016.006l.02.005ZM12.22 9.482a.26.26 0 0 0 .35.07l.02-.012c.116-.068.713-.422 1.4-.358.15.01.27-.09.28-.23.01-.14-.09-.27-.23-.28-.945-.089-1.706.423-1.758.458l-.002.002c-.11.08-.14.24-.06.35Z"/><path fill="#990838" d="M16.26 14.782a.6.6 0 1 0 0-1.2.6.6 0 0 0 0 1.2Z"/></svg>
